svg/233.svg

<svg width="900" height="600" viewBox="0 0 900 600" fill="none" xmlns="http://www.w3.org/2000/svg"><path fill="transparent" d="M0 0h900v600H0z"/><path d="M743.764 391.307H687.01c-13.906 0-25.557-9.465-25.557-21.454 0-5.994 3.006-11.357 7.517-15.143 4.51-3.786 10.899-6.31 18.04-6.31h8.269c7.141 0 13.531-2.524 18.041-6.31 4.51-3.786 7.517-9.149 7.517-15.144 0-11.673-11.275-21.453-25.558-21.453H521.935c-4.529 0-7.44-5.567-7.44-10.096 0-11.357-10.9-20.507-24.43-20.507h-64.508a6.152 6.152 0 1 1 0-12.304h247.171c10.9 0 21.048-3.786 28.189-9.78 7.141-5.994 11.651-14.513 11.651-23.662 0-18.614-18.041-33.442-39.84-33.442h-127.66c-20.031 0-39.858-15.459-59.889-15.459h-71.275c-10.454 0-18.929-8.475-18.929-18.93 0-10.454 8.475-18.929 18.929-18.929h159.6c7.517 0 14.658-2.524 19.544-6.625 4.886-4.102 7.893-9.781 7.893-16.406 0-12.62-12.403-23.03-27.437-23.03H205.546c-7.517 0-14.658 2.523-19.544 6.624-4.886 4.102-7.893 9.781-7.893 16.406 0 12.62 12.403 23.031 27.437 23.031h9.396c12.403 0 22.927 8.518 22.927 19.245 0 5.363-2.631 10.096-6.765 13.566-4.134 3.47-9.772 5.679-16.162 5.679h-45.477c-7.893 0-15.41 2.839-20.672 7.256-5.262 4.417-8.645 10.411-8.645 17.352 0 13.566 13.155 24.293 28.941 24.293h46.229c15.034 0 27.437 10.411 27.437 23.031 0 6.31-3.006 11.989-7.893 16.09-4.886 4.101-11.651 6.625-19.168 6.625h-41.343c-6.766 0-12.779 2.209-17.29 5.995-4.51 3.786-7.141 8.833-7.141 14.512 0 11.358 10.9 20.507 24.431 20.507h33.45c19.169 0 34.578 12.935 34.578 29.025 0 7.888-3.758 15.46-10.147 20.507-6.39 5.364-15.034 8.519-24.431 8.519h-46.605c-9.396 0-18.041 3.155-24.055 8.518-6.389 5.048-10.148 12.304-10.148 20.191 0 15.775 15.41 28.71 34.203 28.71h143.909c15.893 0 31.506 8.834 47.399 8.834h26.209c10.019 0 18.141 8.122 18.141 18.141 0 10.019-8.122 18.14-18.141 18.14h-63.794c-8.269 0-15.41 2.84-20.672 7.257-5.262 4.417-8.645 10.726-8.645 17.352 0 13.566 13.155 24.608 29.317 24.608h390.884c8.269 0 15.41-2.839 20.672-7.256 5.262-4.417 8.644-10.727 8.644-17.352 0-13.566-13.154-24.609-29.316-24.609h-11.651c-12.028 0-21.424-8.202-21.424-17.983 0-5.047 2.255-9.464 6.39-12.619 3.758-3.155 9.396-5.364 15.41-5.364h49.236c8.269 0 15.41-2.839 20.672-7.256 5.262-4.417 8.644-10.727 8.644-17.352 0-14.197-13.155-25.239-29.316-25.239z" fill="url(#a)"/><path d="M788.218 355.356c-9.571 4.748-22.275-1.357-22.275-1.357s2.823-13.801 12.4-18.542c9.571-4.748 22.27 1.35 22.27 1.35s-2.823 13.801-12.395 18.549z" fill="url(#b)"/><path d="M118.278 350.447c13.977 8.376 34.029.633 34.029.633s-2.622-21.322-16.607-29.689c-13.977-8.377-34.02-.643-34.02-.643s2.622 21.322 16.598 29.699z" fill="url(#c)"/><circle cx="754.5" cy="214.499" r="6.5" transform="rotate(180 754.5 214.499)" fill="#fd7600"/><circle cx="330.157" cy="256.1" r="12.225" transform="rotate(180 330.157 256.1)" fill="#fd7600"/><circle r="9.704" transform="matrix(-1 0 0 1 216.53 467.919)" fill="#fd7600"/><circle r="6.497" transform="matrix(-1 0 0 1 726.361 282.701)" fill="#fd7600"/><circle r="12.066" transform="matrix(-1 0 0 1 110.441 473.267)" fill="#E1E4E5"/><circle r="9.183" transform="matrix(-1 0 0 1 764.181 478.183)" fill="#E1E4E5"/><circle r="11.543" transform="matrix(-1 0 0 1 663.286 146.183)" fill="#E1E4E5"/><circle r="9.168" transform="scale(1 -1) rotate(-75 -65.976 -258.74)" fill="#E1E4E5"/><circle r="12.197" transform="matrix(-1 0 0 1 375.014 103.095)" fill="#E1E4E5"/><ellipse rx="9.382" ry="7.506" transform="matrix(-1 0 0 1 710.086 367.797)" fill="#E1E4E5"/><circle r="19.081" transform="scale(1 -1) rotate(-75 234.516 -423.504)" fill="#E1E4E5"/><path d="M217.018 152.734h.134c.791 11.214 9.13 11.387 9.13 11.387s-9.196.179-9.196 13.136c0-12.957-9.196-13.136-9.196-13.136s8.336-.173 9.128-11.387zm8.151 359.765h.128c.76 11.18 8.766 11.353 8.766 11.353s-8.829.179-8.829 13.097c0-12.918-8.829-13.097-8.829-13.097s8.004-.173 8.764-11.353z" fill="#E1E4E5"/><path fill-rule="evenodd" clip-rule="evenodd" d="M611.936 232.871v-46.473c0-25.666-20.807-46.473-46.474-46.473H333.097c-25.667 0-46.473 20.807-46.473 46.473v116.183" fill="#fff"/><path d="M611.936 232.871v-46.473c0-25.666-20.807-46.473-46.474-46.473H333.097c-25.667 0-46.473 20.807-46.473 46.473v116.183" stroke="#E1E4E5" stroke-width="4.789"/><path fill-rule="evenodd" clip-rule="evenodd" d="M286.624 240.998h150.225a23.237 23.237 0 0 0 19.332-10.34l32.601-49.006a23.239 23.239 0 0 1 19.403-10.364h103.751c25.666 0 46.473 20.807 46.473 46.473v232.366c0 25.666-20.807 46.473-46.473 46.473H286.624c-25.666 0-46.473-20.807-46.473-46.473V287.471c0-25.666 20.807-46.473 46.473-46.473z" fill="#fd7600"/><path d="M413.303 311.49v18.306m73.231-18.306v18.306m27.462 67.514s-24.018 24.019-64.073 24.019c-40.054 0-64.072-24.019-64.072-24.019" stroke="#fff" stroke-width="25.788" stroke-linecap="round" stroke-linejoin="round"/><defs><linearGradient id="a" x1="463.813" y1="767.428" x2="454.987" y2="-371.547" gradientUnits="userSpaceOnUse"><stop stop-color="#fff"/><stop offset="1" stop-color="#EEE"/></linearGradient><linearGradient id="b" x1="751.463" y1="370.166" x2="830.409" y2="307.719" gradientUnits="userSpaceOnUse"><stop stop-color="#fff"/><stop offset="1" stop-color="#EEE"/></linearGradient><linearGradient id="c" x1="172.364" y1="377.411" x2="59.903" y2="272.92" gradientUnits="userSpaceOnUse"><stop stop-color="#fff"/><stop offset="1" stop-color="#EEE"/></linearGradient></defs></svg>

<svg width="900" height="600" viewBox="0 0 900 600" fill="none" xmlns="http://www.w3.org/2000/svg">
<g clip-path="url(#clip0_1_2)">
<path d="M743.764 391.307H687.01C673.104 391.307 661.453 381.842 661.453 369.853C661.453 363.859 664.459 358.496 668.97 354.71C673.48 350.924 679.869 348.4 687.01 348.4H695.279C702.42 348.4 708.81 345.876 713.32 342.09C717.83 338.304 720.837 332.941 720.837 326.946C720.837 315.273 709.562 305.493 695.279 305.493H521.935C517.406 305.493 514.495 299.926 514.495 295.397C514.495 284.04 503.595 274.89 490.065 274.89H425.557C424.749 274.89 423.949 274.731 423.203 274.422C422.456 274.113 421.778 273.659 421.207 273.088C420.636 272.517 420.182 271.839 419.873 271.092C419.564 270.346 419.405 269.546 419.405 268.738C419.405 267.93 419.564 267.13 419.873 266.384C420.182 265.637 420.636 264.959 421.207 264.388C421.778 263.817 422.456 263.363 423.203 263.054C423.949 262.745 424.749 262.586 425.557 262.586H672.728C683.628 262.586 693.776 258.8 700.917 252.806C708.058 246.812 712.568 238.293 712.568 229.144C712.568 210.53 694.527 195.702 672.728 195.702H545.068C525.037 195.702 505.21 180.243 485.179 180.243H413.904C403.45 180.243 394.975 171.768 394.975 161.313C394.975 150.859 403.45 142.384 413.904 142.384H573.504C581.021 142.384 588.162 139.86 593.048 135.759C597.934 131.657 600.941 125.978 600.941 119.353C600.941 106.733 588.538 96.323 573.504 96.323H205.546C198.029 96.323 190.888 98.846 186.002 102.947C181.116 107.049 178.109 112.728 178.109 119.353C178.109 131.973 190.512 142.384 205.546 142.384H214.942C227.345 142.384 237.869 150.902 237.869 161.629C237.869 166.992 235.238 171.725 231.104 175.195C226.97 178.665 221.332 180.874 214.942 180.874H169.465C161.572 180.874 154.055 183.713 148.793 188.13C143.531 192.547 140.148 198.541 140.148 205.482C140.148 219.048 153.303 229.775 169.089 229.775H215.318C230.352 229.775 242.755 240.186 242.755 252.806C242.755 259.116 239.749 264.795 234.862 268.896C229.976 272.997 223.211 275.521 215.694 275.521H174.351C167.585 275.521 161.572 277.73 157.061 281.516C152.551 285.302 149.92 290.349 149.92 296.028C149.92 307.386 160.82 316.535 174.351 316.535H207.801C226.97 316.535 242.379 329.47 242.379 345.56C242.379 353.448 238.621 361.02 232.232 366.067C225.842 371.431 217.198 374.586 207.801 374.586H161.196C151.8 374.586 143.155 377.741 137.141 383.104C130.752 388.152 126.993 395.408 126.993 403.295C126.993 419.07 142.403 432.005 161.196 432.005H305.105C320.998 432.005 336.611 440.839 352.504 440.839H378.713C388.732 440.839 396.854 448.961 396.854 458.98C396.854 468.999 388.732 477.12 378.713 477.12H314.919C306.65 477.12 299.509 479.96 294.247 484.377C288.985 488.794 285.602 495.103 285.602 501.729C285.602 515.295 298.757 526.337 314.919 526.337H705.803C714.072 526.337 721.213 523.498 726.475 519.081C731.737 514.664 735.119 508.354 735.119 501.729C735.119 488.163 721.965 477.12 705.803 477.12H694.152C682.124 477.12 672.728 468.918 672.728 459.137C672.728 454.09 674.983 449.673 679.118 446.518C682.876 443.363 688.514 441.154 694.528 441.154H743.764C752.033 441.154 759.174 438.315 764.436 433.898C769.698 429.481 773.08 423.171 773.08 416.546C773.08 402.349 759.925 391.307 743.764 391.307V391.307Z" fill="url(#paint0_linear_1_2)"/>
<path d="M788.218 355.356C778.647 360.104 765.943 353.999 765.943 353.999C765.943 353.999 768.766 340.198 778.343 335.457C787.914 330.709 800.613 336.807 800.613 336.807C800.613 336.807 797.79 350.608 788.218 355.356Z" fill="url(#paint1_linear_1_2)"/>
<path d="M118.278 350.447C132.255 358.823 152.307 351.08 152.307 351.08C152.307 351.08 149.685 329.758 135.7 321.391C121.723 313.014 101.68 320.748 101.68 320.748C101.68 320.748 104.302 342.07 118.278 350.447Z" fill="url(#paint2_linear_1_2)"/>
<path d="M754.5 207.999C750.91 207.999 748 210.909 748 214.499C748 218.089 750.91 220.999 754.5 220.999C758.09 220.999 761 218.089 761 214.499C761 210.909 758.09 207.999 754.5 207.999Z" fill="#FD7600"/>
<path d="M330.157 243.875C323.405 243.875 317.932 249.348 317.932 256.1C317.932 262.852 323.405 268.325 330.157 268.325C336.909 268.325 342.382 262.852 342.382 256.1C342.382 249.348 336.909 243.875 330.157 243.875Z" fill="#FD7600"/>
<path d="M216.53 477.623C211.171 477.623 206.826 473.278 206.826 467.919C206.826 462.56 211.171 458.215 216.53 458.215C221.889 458.215 226.234 462.56 226.234 467.919C226.234 473.278 221.889 477.623 216.53 477.623Z" fill="#FD7600"/>
<path d="M726.361 289.198C722.773 289.198 719.864 286.289 719.864 282.701C719.864 279.113 722.773 276.204 726.361 276.204C729.949 276.204 732.858 279.113 732.858 282.701C732.858 286.289 729.949 289.198 726.361 289.198Z" fill="#FD7600"/>
<path d="M110.441 485.333C103.777 485.333 98.375 479.931 98.375 473.267C98.375 466.603 103.777 461.201 110.441 461.201C117.105 461.201 122.507 466.603 122.507 473.267C122.507 479.931 117.105 485.333 110.441 485.333Z" fill="#F8F8F8"/>
<path d="M764.181 487.366C759.109 487.366 754.998 483.255 754.998 478.183C754.998 473.111 759.109 469 764.181 469C769.253 469 773.364 473.111 773.364 478.183C773.364 483.255 769.253 487.366 764.181 487.366Z" fill="#F8F8F8"/>
<path d="M663.286 157.726C656.911 157.726 651.743 152.558 651.743 146.183C651.743 139.808 656.911 134.64 663.286 134.64C669.661 134.64 674.829 139.808 674.829 146.183C674.829 152.558 669.661 157.726 663.286 157.726Z" fill="#F8F8F8"/>
<path d="M209.879 253.128C211.19 258.019 208.287 263.046 203.396 264.357C198.506 265.667 193.478 262.765 192.168 257.874C190.857 252.983 193.76 247.956 198.651 246.645C203.541 245.335 208.569 248.237 209.879 253.128Z" fill="#F8F8F8"/>
<path d="M375.014 115.292C368.278 115.292 362.817 109.831 362.817 103.095C362.817 96.3588 368.278 90.898 375.014 90.898C381.75 90.898 387.211 96.3588 387.211 103.095C387.211 109.831 381.75 115.292 375.014 115.292Z" fill="#F8F8F8"/>
<path d="M710.086 375.303C704.904 375.303 700.704 371.942 700.704 367.797C700.704 363.652 704.904 360.291 710.086 360.291C715.268 360.291 719.468 363.652 719.468 367.797C719.468 371.942 715.268 375.303 710.086 375.303Z" fill="#F8F8F8"/>
<path d="M652.8 84.4308C655.528 94.6099 649.487 105.073 639.308 107.8C629.129 110.528 618.666 104.487 615.939 94.3079C613.211 84.1288 619.252 73.666 629.431 70.9385C639.61 68.211 650.073 74.2518 652.8 84.4308Z" fill="#F8F8F8"/>
<path d="M217.018 152.734H217.152C217.943 163.948 226.282 164.121 226.282 164.121C226.282 164.121 217.086 164.3 217.086 177.257C217.086 164.3 207.89 164.121 207.89 164.121C207.89 164.121 216.226 163.948 217.018 152.734V152.734ZM225.169 512.499H225.297C226.057 523.679 234.063 523.852 234.063 523.852C234.063 523.852 225.234 524.031 225.234 536.949C225.234 524.031 216.405 523.852 216.405 523.852C216.405 523.852 224.409 523.679 225.169 512.499V512.499Z" fill="#F8F8F8"/>
<path fill-rule="evenodd" clip-rule="evenodd" d="M611.936 232.871V186.398C611.936 160.732 591.129 139.925 565.462 139.925H333.097C307.43 139.925 286.624 160.732 286.624 186.398V302.581" fill="#F8F8F8"/>
<path d="M611.936 232.871V186.398C611.936 160.732 591.129 139.925 565.462 139.925H333.097C307.43 139.925 286.624 160.732 286.624 186.398V302.581" stroke="#F8F8F8" stroke-width="4.789"/>
<path fill-rule="evenodd" clip-rule="evenodd" d="M286.624 240.998H436.849C440.673 240.998 444.439 240.055 447.811 238.251C451.183 236.447 454.058 233.839 456.181 230.658L488.782 181.652C490.909 178.456 493.794 175.837 497.18 174.029C500.565 172.22 504.346 171.279 508.185 171.288H611.936C637.602 171.288 658.409 192.095 658.409 217.761V450.127C658.409 475.793 637.602 496.6 611.936 496.6H286.624C260.958 496.6 240.151 475.793 240.151 450.127V287.471C240.151 261.805 260.958 240.998 286.624 240.998Z" fill="#FD7600"/>
<path d="M413.303 311.49V329.796M486.534 311.49V329.796M513.996 397.31C513.996 397.31 489.978 421.329 449.923 421.329C409.869 421.329 385.851 397.31 385.851 397.31" stroke="#F8F8F8" stroke-width="25.788" stroke-linecap="round" stroke-linejoin="round"/>
</g>
<defs>
<linearGradient id="paint0_linear_1_2" x1="463.813" y1="767.428" x2="454.987" y2="-371.547" gradientUnits="userSpaceOnUse">
<stop stop-color="white"/>
<stop offset="1" stop-color="#EEEEEE"/>
</linearGradient>
<linearGradient id="paint1_linear_1_2" x1="751.463" y1="370.166" x2="830.409" y2="307.719" gradientUnits="userSpaceOnUse">
<stop stop-color="white"/>
<stop offset="1" stop-color="#EEEEEE"/>
</linearGradient>
<linearGradient id="paint2_linear_1_2" x1="172.364" y1="377.411" x2="59.903" y2="272.92" gradientUnits="userSpaceOnUse">
<stop stop-color="white"/>
<stop offset="1" stop-color="#EEEEEE"/>
</linearGradient>
<clipPath id="clip0_1_2">
<rect width="900" height="600" fill="white"/>
</clipPath>
</defs>
</svg>
